X:1
T:Title
%%score 1 { 2 | 3 }
L:1/8
Q:1/4=115
M:4/4
K:C
V:1 treble nm="Grand Piano, Soprano"
V:2 treble nm="Choir Pad, Iosco, LM"
V:3 bass 
V:1
 [CF]4 [FA]2 [Gc]2 | [FA]2 [EG]2 [FA]2 [FB]2 | [Ec]8 | [Fc]4 [Fd]2 [Ec]2 | %4
w: By~From~Old~German~Chorale * *||||
 [FA]2 [CF]2 [DF]2 [CE]2 | [CF]8 | [EG]4 [FA]2 [FA]2 | [DG]2 [Gc]2 [Fc]2 [FB]2 | [Ec]8 | %9
w: |||||
 [FA]4 [F_B]2 [FA]2 | [EG]2 [DF]2 [DF]2 [CE]2 | [CF]8 |] %12
w: |||
V:2
 A,4 C2 C2 | C2 C2 C2[K:bass] F,2 | G,8 | A,4 _B,2 G,2 | A,2 C2 _B,2 G,2 | A,8 | C4 C2 D2 | %7
 B,2 C2 D2 D2 | C8 | C4 D2 C2 | C2 A,2 G,2 G,2 | A,8 |] %12
V:3
 F,4 F,2 E,2 | F,2 C,2 F,2 D,2 | C,8 | F,4 _B,,2 C,2 | F,2 A,,2 _B,,2 C,2 | F,8 | C,4 F,2 D,2 | %7
 G,2 E,2 D,2 G,2 | C,8 | F,4 D,2 F,2 | C,2 D,2 _B,,2 C,2 | F,8 |] %12

